packages/icons/src/components/Icon/assets/small-outline/console.svg

<svg width="16" height="16" viewBox="0 0 16 16" fill="none" xmlns="http://www.w3.org/2000/svg">
<path fill-rule="evenodd" clip-rule="evenodd" d="M1 3.771C1 2.53267 2.00386 1.52881 3.24219 1.52881H12.7578C13.9961 1.52881 15 2.53267 15 3.771V12.2293C15 13.4677 13.9961 14.4715 12.7578 14.4715H3.24219C2.00386 14.4715 1 13.4677 1 12.2293V3.771ZM3.24219 2.84131C2.72874 2.84131 2.3125 3.25754 2.3125 3.771V12.2293C2.3125 12.7428 2.72874 13.159 3.24219 13.159H12.7578C13.2713 13.159 13.6875 12.7428 13.6875 12.2293V3.771C13.6875 3.25754 13.2713 2.84131 12.7578 2.84131H3.24219ZM3.77448 4.43454C3.99194 4.14459 4.40328 4.08583 4.69323 4.30329L6.80781 5.88923C6.97306 6.01316 7.07031 6.20767 7.07031 6.41423C7.07031 6.62078 6.97306 6.81529 6.80781 6.93923L4.69323 8.52516C4.40328 8.74263 3.99194 8.68386 3.77448 8.39391C3.55702 8.10396 3.61578 7.69263 3.90573 7.47516L5.32031 6.41423L3.90573 5.35329C3.61578 5.13583 3.55702 4.72449 3.77448 4.43454ZM6.8151 8.00016C6.8151 7.63773 7.10892 7.34391 7.47135 7.34391H9.58594C9.94837 7.34391 10.2422 7.63773 10.2422 8.00016C10.2422 8.3626 9.94837 8.65641 9.58594 8.65641H7.47135C7.10892 8.65641 6.8151 8.3626 6.8151 8.00016Z" fill="black"/>
</svg>

<svg xmlns="http://www.w3.org/2000/svg" width="16" height="16" fill="none" viewBox="0 0 16 16">
    <path fill="#000" fill-rule="evenodd" d="M1 3.771a2.24 2.24 0 0 1 2.242-2.242h9.516A2.24 2.24 0 0 1 15 3.77v8.458a2.24 2.24 0 0 1-2.242 2.243H3.242A2.24 2.24 0 0 1 1 12.229zm2.242-.93a.93.93 0 0 0-.93.93v8.458c0 .514.417.93.93.93h9.516a.93.93 0 0 0 .93-.93V3.771a.93.93 0 0 0-.93-.93zm.532 1.594a.656.656 0 0 1 .92-.132L6.807 5.89a.656.656 0 0 1 0 1.05L4.693 8.525a.656.656 0 1 1-.787-1.05l1.414-1.06-1.414-1.062a.656.656 0 0 1-.132-.918M6.815 8c0-.362.294-.656.656-.656h2.115a.656.656 0 0 1 0 1.312H7.47A.656.656 0 0 1 6.815 8" clip-rule="evenodd"/>
</svg>
